Sources/FrostedUI/Resources/Icons.xcassets/twitter20.imageset/twitter-20.svg

<svg width="21" height="20" viewBox="0 0 21 20" fill="none" xmlns="http://www.w3.org/2000/svg" data-fui-icon="true">
  <path
    d="M13.6074 1.84961C14.7606 1.84972 15.8152 2.28022 16.6123 2.98535C17.1702 2.85068 17.7028 2.65181 18.2002 2.39551L18.3184 2.3457C18.5982 2.25269 18.8933 2.32429 19.0977 2.5C19.3399 2.70858 19.4608 3.07486 19.3018 3.42676C19.2666 3.50454 19.227 3.57997 19.1875 3.65527C19.7582 3.47822 20.26 4.12734 19.9102 4.64258L19.9111 4.64355C19.4182 5.37022 18.8083 6.01636 18.1123 6.55664C18.1132 6.61328 18.1162 6.66993 18.1162 6.72656C18.1162 12.0199 14.0227 18.1501 6.52148 18.1504C4.48377 18.1504 2.56839 17.629 0.90332 16.7168C0.511973 16.5022 0.427982 16.0773 0.525391 15.7695C0.620383 15.4701 0.912645 15.1861 1.32812 15.1982L1.54297 15.2012C2.6423 15.2012 3.68201 14.9545 4.61035 14.5166C3.52412 14.0535 2.65778 13.1812 2.21582 12.0928C2.07919 11.756 2.17464 11.4539 2.37207 11.251C1.37063 10.4387 0.728518 9.20759 0.728516 7.82324C0.728516 7.47518 0.977273 7.21854 1.27539 7.1582C0.947502 6.54228 0.760742 5.84056 0.760742 5.0957C0.76082 4.37562 0.935917 3.69385 1.24512 3.09082L1.30176 2.99512C1.58845 2.57849 2.16001 2.56254 2.49805 2.86719L2.56641 2.9375L2.91016 3.31641C4.50808 4.99036 6.67727 6.12585 9.11426 6.42871C9.11277 6.38201 9.11035 6.33517 9.11035 6.28809C9.11035 3.8274 11.1341 1.84961 13.6074 1.84961ZM13.6074 3.15039C11.8329 3.15039 10.4102 4.56431 10.4102 6.28809C10.4102 6.53261 10.4395 6.77119 10.4932 7.00293L10.6865 7.84082L9.82715 7.79883C6.82008 7.64974 4.11832 6.37082 2.14258 4.38672C2.08879 4.61471 2.06058 4.85198 2.06055 5.0957C2.06055 6.17893 2.62011 7.1401 3.47852 7.70508L5.40332 8.97266L3.10059 8.89844C2.78477 8.88826 2.47725 8.8428 2.18066 8.77148C2.52339 9.83157 3.42267 10.6531 4.55273 10.8906L4.57324 10.8945C4.57911 10.8957 4.58494 10.8973 4.59082 10.8984H4.58984L4.59473 10.8994L6.60645 11.3086L4.72559 12.1318C4.61769 12.1791 4.49568 12.2059 4.41406 12.2217C4.31802 12.2402 4.21032 12.2559 4.10254 12.2686C4.00986 12.2794 3.91113 12.2869 3.8125 12.2939C4.3824 13.0571 5.29479 13.5619 6.33203 13.5801L8.18652 13.6123L6.71777 14.7451C5.71973 15.5149 4.54021 16.0647 3.25488 16.3271C4.28059 16.6658 5.37877 16.8496 6.52148 16.8496C13.1735 16.8493 16.8164 11.4405 16.8164 6.72656C16.8164 6.57502 16.8127 6.4204 16.8057 6.2666L16.79 5.91309L17.0781 5.70801C17.1815 5.63441 17.2817 5.55641 17.3809 5.47754C17.0763 5.45015 16.8606 5.23017 16.7812 5.0127C16.6964 4.78007 16.7286 4.45439 16.9775 4.23438C16.8324 4.27054 16.6861 4.30444 16.5381 4.33301L16.1895 4.40039L15.9443 4.14355C15.3613 3.53332 14.5305 3.15052 13.6074 3.15039Z"
    fill="currentColor"
  />
</svg>

<svg xmlns="http://www.w3.org/2000/svg" width="21" height="20" fill="none" data-fui-icon="true" viewBox="0 0 21 20"><path fill="currentColor" d="M13.607 1.85c1.154 0 2.208.43 3.005 1.135a7 7 0 0 0 1.588-.59l.118-.05a.81.81 0 0 1 .78.155.79.79 0 0 1 .204.927q-.054.116-.114.228c.57-.177 1.072.472.722.988h.001a8.4 8.4 0 0 1-1.799 1.914q.003.084.004.17c0 5.293-4.093 11.423-11.595 11.423-2.037 0-3.953-.521-5.618-1.433a.8.8 0 0 1-.378-.947.816.816 0 0 1 .803-.572l.215.003c1.1 0 2.139-.247 3.067-.684a4.48 4.48 0 0 1-2.394-2.424.76.76 0 0 1 .156-.842A4.4 4.4 0 0 1 .73 7.823c0-.348.248-.604.546-.665a4.384 4.384 0 0 1-.03-4.067l.057-.096c.286-.417.858-.432 1.196-.128l.068.07.344.38a10.32 10.32 0 0 0 6.204 3.112q-.003-.07-.004-.14c0-2.462 2.024-4.44 4.497-4.44m0 1.3c-1.774 0-3.197 1.414-3.197 3.138q.002.367.083.715l.194.838-.86-.042a11.63 11.63 0 0 1-7.684-3.412 3.122 3.122 0 0 0 1.336 3.318l1.924 1.268-2.302-.075a4.6 4.6 0 0 1-.92-.127 3.18 3.18 0 0 0 2.372 2.12l.02.004.018.003H4.59l.005.001 2.011.41-1.88.823a1.5 1.5 0 0 1-.312.09 4.4 4.4 0 0 1-.601.072 3.2 3.2 0 0 0 2.519 1.286l1.855.032-1.47 1.133a8.4 8.4 0 0 1-3.462 1.582 10.4 10.4 0 0 0 3.266.523c6.653 0 10.295-5.41 10.295-10.123q0-.23-.01-.46l-.016-.354.288-.205q.155-.112.303-.23a.72.72 0 0 1-.6-.465.72.72 0 0 1 .197-.779q-.219.056-.44.099l-.349.067-.245-.256a3.22 3.22 0 0 0-2.337-.994"/></svg>
